svg/400/outlined/pending-fill.svg

<svg xmlns="http://www.w3.org/2000/svg" width="48" height="48" viewBox="0 -960 960 960"><path d="M266.118-430Q287-430 301.5-444.618q14.5-14.617 14.5-35.5Q316-501 301.382-515.5q-14.617-14.5-35.5-14.5Q245-530 230.5-515.382q-14.5 14.617-14.5 35.5Q216-459 230.618-444.5q14.617 14.5 35.5 14.5Zm214 0Q501-430 515.5-444.618q14.5-14.617 14.5-35.5Q530-501 515.382-515.5q-14.617-14.5-35.5-14.5Q459-530 444.5-515.382q-14.5 14.617-14.5 35.5Q430-459 444.618-444.5q14.617 14.5 35.5 14.5Zm213 0Q714-430 728.5-444.618q14.5-14.617 14.5-35.5Q743-501 728.382-515.5q-14.617-14.5-35.5-14.5Q672-530 657.5-515.382q-14.5 14.617-14.5 35.5Q643-459 657.618-444.5q14.617 14.5 35.5 14.5ZM480.266-80q-82.734 0-155.5-31.5t-127.266-86q-54.5-54.5-86-127.341Q80-397.681 80-480.5q0-82.819 31.5-155.659Q143-709 197.5-763t127.341-85.5Q397.681-880 480.5-880q82.819 0 155.659 31.5Q709-817 763-763t85.5 127Q880-563 880-480.266q0 82.734-31.5 155.5T763-197.684q-54 54.316-127 86Q563-80 480.266-80Z"/></svg>

<svg xmlns="http://www.w3.org/2000/svg" width="48" height="48" viewBox="0 -960 960 960"><path d="M266.12-430q20.88 0 35.38-14.62 14.5-14.62 14.5-35.5 0-20.88-14.62-35.38-14.62-14.5-35.5-14.5-20.88 0-35.38 14.62-14.5 14.62-14.5 35.5 0 20.88 14.62 35.38 14.62 14.5 35.5 14.5Zm214 0q20.88 0 35.38-14.62 14.5-14.62 14.5-35.5 0-20.88-14.62-35.38-14.62-14.5-35.5-14.5-20.88 0-35.38 14.62-14.5 14.62-14.5 35.5 0 20.88 14.62 35.38 14.62 14.5 35.5 14.5Zm213 0q20.88 0 35.38-14.62 14.5-14.62 14.5-35.5 0-20.88-14.62-35.38-14.62-14.5-35.5-14.5-20.88 0-35.38 14.62-14.5 14.62-14.5 35.5 0 20.88 14.62 35.38 14.62 14.5 35.5 14.5ZM480.27-80q-82.74 0-155.5-31.5Q252-143 197.5-197.5t-86-127.34Q80-397.68 80-480.5t31.5-155.66Q143-709 197.5-763t127.34-85.5Q397.68-880 480.5-880t155.66 31.5Q709-817 763-763t85.5 127Q880-563 880-480.27q0 82.74-31.5 155.5Q817-252 763-197.68q-54 54.31-127 86Q563-80 480.27-80Z"/></svg>
